X:1
T:Glory to God for Salvation
T:Glory to God for Salvation
T:J. B. Blackburn
T:J. B. Blackburn, 1906
T:Public Domain Courtesy of the Cyber Hymnal™
C:J. B. Blackburn
Z:Public Domain
Z:Courtesy of the Cyber Hymnal™
%%score ( 1 2 ) ( 3 4 )
L:1/8
Q:1/4=92
M:6/8
K:G
V:1 treble 
V:2 treble 
V:3 bass 
V:4 bass 
V:1
 [B,G] | [DB]>[DB][DB] [DB][CA][B,G] | [CA] [B,G]3 z ([B,G]/[CA]/) | [DB]>[DB][DB] [^CB][CA][CG] | %4
w: 1.~All|glo- ry to God for con-|vic- tion, Which *|made me re- pent of my|
w: 2.~All|glo- ry to God for con-|ver- sion, And~the *|wit- ness He sent from a-|
w: 3.~All|glo- ry to God for the|prom- ise To *|cleanse all de- file- ment a-|
w: 4.~All|glo- ry to God! He is|keep- ing That *|which I’ve com- mit- ted to|
 [DA]4 z ([B,G]/[B,G]/) | ([DB]>[DB])[DB] [DB][DA][DG][EA] [EG]2 z2 [CE]/[CE]/ | %6
w: sins, And *|see * my ru- ined con- di- tion, For ’tis|
w: bove, For~the *|joy * and peace He has giv- en, And a|
w: way, And *|send * us the gift of His Spir- it, When|
w: Him; His *|blood * o’er my soul is now flow- ing, And|
 [B,D][B,D][B,G] [DB][B,G][CA] | [B,G]3- [B,G]2 ||"^Refrain" [GB] | [Gd]>[Gd][Ge] [Gd]>[Gd][GB] | %10
w: here that all wis- dom be-|gins. *|||
w: heart that is filled with His|love. *|All|glo- ry to God for sal-|
w: all on the al- tar we|lay. *|||
w: Je- sus a- bid- eth with-|in. *|||
 [FA] G3 z (G/A/) | [DB]2 [DB] [^CB][CA][CG] | [Dd]3- [Dd]2 [GB] | [Gd]>[Gd][Ge] [Gd]2 [GB] | %14
w: ||||
w: va- tion, From *|sin He set- teth me|free; * Go|tell it to ev- ery|
w: ||||
w: ||||
 [FA] G3 z ([DG]/[EA]/) | [DB]>[DB][DB] [CA][DB][CA] | [B,G]3- [B,G]2 |] %17
w: |||
w: na- tion, That *|Je- sus has saved e- ven|me. *|
w: |||
w: |||
V:2
 x | x6 | x6 | x6 | x6 | x12 | x6 | x5 || x | x6 | x G3 D x | x6 | x6 | x6 | x G3 x2 | x6 | x5 |] %17
V:3
 [G,,G,] | [G,,G,]>[G,,G,][G,,G,] [G,,G,][G,,G,][G,,G,] | [D,F,] G,3 z G,/G,/ | %3
 [G,,G,]>[G,,G,][G,,G,] [A,,G,][A,,G,][A,,G,] | [D,F,]4 z ([G,,G,]/[G,,G,]/) | %5
 ([G,,G,]>[G,,G,])[G,,G,] G,G,G,[C,C] [C,C]2 z2 [C,G,]/[C,G,]/ | %6
 [D,G,][D,G,][D,G,] [D,G,][D,G,][D,F,] | [G,,G,]3- [G,,G,]2 || [G,D] | %9
 [G,B,]>[G,B,][G,C] [G,B,]>[G,B,][G,D] | [D,D] [G,B,]3 z [G,,G,] | %11
 [G,,G,]2 [G,,G,] [A,,G,][A,,G,][A,,G,] | [D,F,]3- [D,F,]2 G, | [G,B,]>[G,B,][G,C] [G,B,]2 [G,D] | %14
 [D,C] [G,B,]3 z G, | [D,G,]>[D,G,][D,G,] [D,F,][D,G,][D,F,] | [G,,G,]3- [G,,G,]2 |] %17
V:4
 x | x6 | x G,3 (G,/G,/) x | x6 | x6 | x3 G,G,G, x6 | x6 | x5 || x | x6 | x6 | x6 | x5 G, | x6 | %14
 x5 (B,,/C,/) | x6 | x5 |] %17

